X:21021 
T:CAPTAIN BYNG (reel)
B:DMI.0736
Z:Nordberg/Black
N:Not quite identical with the session polka but close enough!
N:Single in DMI
R:reel
%Q:1/4=180
M:C
L:1/8
K:G
d|gfgd BGG2|eaag fdef|gfgd BGGB|cAdB G2Gd|
gfgd BGG2|eaag fdcA|Bdef gage|dBAB G2 :|
c|BGdG BGGB|cAeA cAAc|BGdG BGGB|cAdB G2GA|
BGdG BGGB|cAeA cAAc|Bdef gage|dBAB G2 :|

%%%

